X: 21418
T: Kesh, The
R: jig
M: 6/8
K: Gmajor
|:"G"GA"g"G GA"g"B|"D"AB"d"A AB"d"d|"G"ed"g"d gd"g"d|"C"ed"c"B "D"dB"d"A|
"G"GA"g"G GA"g"B|"D"AB"d"A AB"d"d|"G"ed"g"d gd"g"B|"D"AG"d"F "G"G3:|
|:"G"BA"g"B dB"g"d|"C"eg"c"e "D"dB"d"A|"G"BA"g"B dB"g"G|"D"AB"d"A AG"d"A|
"G"BA"g"B dB"g"d|"C"eg"c"e "G"dB"g"d|"G"gf"g"g "D"ag"d"a|"G"bg"g"g "G"g3:|

